X: 25
T:Jogging to the Fair (Bampton)
M:6/8
L:1/8
O:England; Oxfordshire; Bampton.
B:Lionel Bacon, A Handbook of Morris Dances
Z:http://www.themorrisring.org/music/handbook-morris-dances
P:AAB(CB)2
K:G
P:A
D|G2 A B>Bc|d>fg dcd/c/|{Bc}B>AG G>FG|A>cB A>GA|
B>cd e>fg|f>af d2g |{fg}f>cB AB^c|d3 d2 ||
P:B
d|a>fd a>fd|c>Bc B>cd|{ga}g2 d g2 d|c>Bc B>cd|
e2 f g>fg|e>dc  d2 B | G>ed cBA |G>FG {FE}E2D |
G2 G GBd |e2 f g>fe |
d>BG A>Bc|(3E/F/E/D G2A |B>dg B2A |G3 G2||
P:C
M:3/8
D>EF|\
M:6/8
G3 A3|B3 B2c|d3 g3|(2d^c =c3|Bd2 G3|(2GF G3|Ac2 B3|
M:3/8
A>GA|\
M:6/8
B>cd e>fg|  f>af d2g|{fg}f>cB AB^c|d3 d2||

